X: 1
T: Smedens f\orsta hopsa
O: efter B\orge Christensen/Thorkild Knudsen
B: "Foklemusikhus Spillebog"
M: 2/4
L: 1/8
K: G
|: "G"GB dg |    b2 g2 |  gf/g/ ag |"C"Tf2 e2 \
|  "D"AB cd |    ed cA |1 "G"GB dg |    b2 g2 :|2 "G"G2 g2 | g2 z2 ||
|: "D"dd ed | "G"B2 G2 |  GF/G/ AG | "C"TF2 E2 \
|  "D"AB cd |    ed cA |1 "G"GB dg |    b2 g2 :|2 "G"G2 g2 | g2 z2 |]
